X:48
T:Bello Naneto
O:France
A:Provence
R:Farandole
Z:Transcrit et/ou corrig par Michel BELLON - 2005-05-21
Z:Pour toute observation mailto:galouvielle@free.fr
M:6/8
L:1/8
K:F
fff | c2c fff|A2A ccc|G2B A2G|c2z fff|c2c fff|A2A ccc|G2B A2G|F2!fine!z||
F2A |c2d c2A|F2z FFF|G3 GFG|(A2F) F2A|c2d c2A|F2z FEF|G2B A2G|F2z fff|]
%%footer $D   Galouvielle-MBe 2005 \nFarandole France
